X:1
T:messa de morti
T:Messa de morti
T:a quattro voci pari
T:Marco da Gagliano et al.
C:Marco da Gagliano et al.
%%score [ 1 2 3 4 ]
L:1/8
M:4/4
K:F
V:1 treble-8 nm="T" snm="T"
V:2 treble-8 nm="T" snm="T"
V:3 treble-8 nm="T" snm="T"
V:4 bass nm="B" snm="B"
V:1
 x8 | x8 | x8 | x8 || z8 | c8 | d4 f4- | f4 e4 | f8 | z8 | z4 f4- | f4 d4 | f4 f4 | e6 e2 | c4 f4 | %15
w: |||||ae-|ter- *||nam||do-|* na|e- is,|Do- mi-|ne, et|
 g4 e4 | d6 d2 | e4 f4 | c4 d4 | c8- | c8 | c8 |] z8 | z8 | z8 | z8 | z8 | z8 | z8 | z8 | z8 | z8 | %32
w: lux per-|pe- tu-|a lu-|ce- at|e-||is.|||||||||||
 z8 | z8 | z8 | z8 | z8 || c8 | d8 | ^c4 c4 | d4 e4 | f8 | e4 f4- | f4 f4 | f4 e4 | f8 | z4 d4 | %47
w: |||||et|ti-|bi red-|de- tur|vo-|tum in|_ Je-|ru- sa-|lem.|Ex-|
 e8 | f4 d4 | d4 d4 | _e4 e4 | f8 | f8 | z8 | z4 f4- | f4 e4 | d8- | d4 c4 | A2 B2 c2 d2 | e4 f4 | %60
w: au-|di o-|ra- ti-|o- nem|me-|am;||ad|_ te|om-|* nis|ca- * * *|* ro|
 f4 e4 | f8 |] z8 | c8 | d8 | e4 f4- | f4 d4 | c2 B2 c2 d2 | e4 f4- | f4 e4 | f8 || z8 | z8 | z8 | %74
w: ve- ni-|et.||Ky-|ri-|e _|_ e-|le- * * *||* i-|son||||
 z8 | f8 | d4 e4 | f4 e4 | d8 | z4 e4 | c4 d4 | e4 f4- | f4 e4 | f8 || z8 | c8- | c4 d4 | d8 | %88
w: |Chri-|ste e-|le- i-|son|Chri-|ste e-|le- *|* i-|son||Ky-|* ri-|e|
 z4 f4- | f4 g4 | _e8 | d8 | c8 | c8 | c8 |][K:C][M:4/2] d12 e4 | f8 e4 d4- | d2 e2 f8 e4 | %98
w: Ky-|* ri-|e|e-|le-|i-|son|Di- es|i- rae, di-|* es il- *|
 f8 f4 f4 | e8 e4 d4- | d4 c4 B8 | c8 d4 e4 | f8 d4 e4 | d4 d8 ^c4 | d16 || d4 e4 e4 c4 | %106
w: la sol- vet|saec- lum in|_ fa- vil-|la, te- ste|Da- vid cum|Si- byl- *|la.|Tu- ba mi- rum|
 e4 f4 f4 e4 | f8 f4 d4 | c4 e4 c4 d4 | B8 ^c4 d4- | d4 e4 f8 | f4 e8 d4 | d4 ^c4 d8 || f8 e4 g4- | %114
w: spar- gens so- *|num, per se-|pul- chra re- gi-|o- num, co-|* get om-|nes an- te|thro- * num.|Li- ber scrip-|
 g4 g4 f4 e4 | g8 g8 | g4 ^g4 a4 e4 | e6 d2 e8 | e4 g8 g4 | e2 d2 e2 f2 g8 | e4 f8 e4- | %121
w: * tus pro- fe-|re- tur|in quo to- tum|con- ti- ne-|tur, un- de|mun- * * * *|dus iu- di-|
 e4 d8 ^c4 | d16 || f4 e4 g4 g4 | f4 f4 e8 | e4 e8 d4 | a8 g8 | e4 e4 e8 | e4 c8 e4 | g8 d8 | %130
w: * ce- *|tur.|Quid sum mi- ser|tunc dic- tu-|rus? Quem pa-|tro- num|ro- ga- tu-|rus, cum vix|iu- stus|
 f4 e2 d2 c6 d2 | e4 d4 d4 ^c4 | d16 || f8 e8- | e8 d8 | e12 c4 | d4 f6 e2 d2 c2 | d16 | %138
w: sit _ _ _ _|_ se- cu- *|rus?|O- ro|_ sup-|plex et|ac- cli- * * *||
 ^c8 z4 d4- | d4 f4 e8 | c4 d8 e4 | e8 e8 | f12 f4 | d8 e8 | c4 d4 f4 e4- | e2 d2 d8 ^c4 | d16 || %147
w: nis cor|_ con- tri-|tum qua- si|ci- nis,|ge- re|cu- ram|me- i fi- *||nis.|
 f8 e8 | e8 c4 d4- | d4 c4 d8 | c8 d4 f4- | f4 d8 e4- | e4 e4 f8 | d4 f6 e2 d4- | %154
w: Iu- di-|can- dus ho-|* mo re-|* us. Hu-|* ic er-|* go par-|ce, De- * *|
 d4 !courtesy!^c2 B2 c8 | d16 || f12 f4 | e8 d8 | e4 f8 e4 | f8 c4 f4 | d4 e4 d6 d2 | e8 z4 f4- | %162
w: |us:|Pi- e|Ie- su|Do- * mi-|ne, do- na|e- is re- qui-|em. A-|
 f2 e2 d2 c2 _B2 A2 B2 c2 | d8 d8 |][K:F] z16 | z16 | z16 | z16 | z16 | z16 | z16 | z16 | z16 | %173
w: |* men.||||||||||
 z16 | z16 | z16 | z16 | z16 | z16 | z16 | z16 || d8 c8 | d12 d4 | e8 f4 f4- | f4 c4 d4 e4 | %185
w: ||||||||Tu _|sus- ci-|pe pro a-|* ni- ma- bus|
 f6 e2 d8 | ^c8 d8 | e8 f8- | f4 f4 e4 e4 | d8 e4 d4 | A4 c4 d8 | f16 | f8 e8 | d12 d4 | %194
w: il- * *|lis qua-|rum ho-|* di- e me-|mo- ri- am|fa- ci- mus.|Fac|e- as,|Do- mi-|
 d4 d4 _e8 | d12 d4 | f8 e8 | d6 cB A4 d4- | d4 ^c2 =B2 c8 | d16 || d8 e4 d4 | B4 c4 d8 | %202
w: ne, de mor-|te trans-|i- re|ad _ _ _ vi-||tam.|quam o- lim|A- bra- hae|
 z4 d8 d4 | !courtesy!_e4 d8 c4 | d16 | z8 z4 d4 | !courtesy!_e4 e4 d8 | B6 c2 d8 | %208
w: pro- mi-|si- * *|sti|et|se- mi- ni|e- * *|
 !courtesy!_e16 | d16 |][K:C] x16 | x16 ||[K:C] e8 f8- | f4 e4 e8 | ^c4 d4 e6 e2 | e4 f8 f4 | %216
w: |ius.|||San- *|* * ctus,|San- ctus, Do- mi-|nus De- us|
 e6 e2 e8 |] x16 | x16 || d8 ^c4 d4 | e8 d4 d4- | d2 e2 f4 e8 | ^f4 f4 g4 a4- | a4 g8 f4 | d8 e8 | %225
w: Sa- ba- oth.|||coe- li et|ter- ra glo-|* ri- a tu-|a. O- san- na|_ in ex-|cel- sis.|
 z4 f4 f4 e4 | e4 d4 B8 | ^c16- |] x16 | x16 | x16 || z4 d4 e8 | d4 d4 f4 f2 f2 | e6 e2 ^f4 f4 | %234
w: O- san- na|in ex- cel-|sis.||||qui ve-|nit in no- mi- ne|Do- mi- ni. O-|
 g4 a8 g4- | g4 f4 d8 | e8 z4 f4 | f4 e4 e4 d4 | B8 ^c8 |] %239
w: san- na in|_ ex- cel-|sis. O-|san- na in ex-|cel- sis.|
V:2
 x8 | x8 | x8 | x8 || z8 | z8 | F8 | G8 | F4 A4- | A4 G4 | A4 c4 | B6 B2 | A8 | z4 G4 | A8 | G8 | %16
w: ||||||ae-|ter-|nam do-|* na|e- is,|Do- mi-|ne,|et|lux|per-|
 G6 G2 | G4 A4- | A2 A2 F4 | E4 F4- | F4 E4 | F8 |] z8 | z8 | z8 | z8 | z8 | z8 | z8 | z8 | z8 | %31
w: pe- tu-|a lu-|* ce- at|e- *||is.||||||||||
 z8 | z8 | z8 | z8 | z8 | z8 || z4 F4 | F8 | F4 E4 | F4 G4 | A8 | G4 A4- | A4 F4 | B4 G4 | A8- | %46
w: ||||||et|ti-|bi red-|de- tur|vo-|tum in|_ Je-|ru- sa-|lem.|
 A4 B4 | c8 | F4 F4 | F4 F4 | G4 G4 | B8 | A4 A4- | A4 G4 | F8 | c8 | B8 | A8 | F2 G2 A2 F2 | %59
w: _ Ex-|au-|di o-|ra- ti-|o- nem|me-|am; ad|_ te|om-|nis|ca-|ro|ve- * * *|
 G4 A2 B2 | c4 G4 | F8 |] z4 F4 | G4 A4 | B4 A2 B2 | c8 | B4 F4- | F2 G2 A2 B2 | c6 BA | G4 G4 | %70
w: |* ni-|et.|Ky-|ri- e|e- le- *|i-|son Ky-|* ri- e _|_ _ _|le- i-|
 F8 || z8 | z8 | z8 | c8 | A4 c4 | B4 A2 G2 | A2 B2 c4- | c4 =B4 | c8 | z4 B4 | G4 A4 | c4 c4 | %83
w: son||||Chri-|ste e-|le- * *||* i-|son-|Chri-|ste e-|le- i-|
 c8 || z8 | A8- | A4 B4 | B8 | d8- | d4 G4 | G4 B4- | B2 AG F4- | F4 F4- | F4 E4 | F8 |] %95
w: son||Ky-|* ri-|e|Ky-|* ri-|e e-||* le-|* i-|son|
[K:C][M:4/2] F12 G4 | A8 G4 _B4- | B4 A4 G8 | F4 A8 A4 | ^G8 A8 | F4 E4 E8 | E8 F4 G4 | %102
w: Di- es|i- rae, di-|* es il-|la sol- vet|saec- lum|in fa- vil-|la, te- ste|
 A8 _B4 G4- | G4 F4 E8 | F16 || A4 c4 B4 A4 | G4 F4 G8 | F4 A8 G4 | F4 G4 F4 F4 | E8 E4 F4- | %110
w: Da- vid cum|_ Si- byl-|la.|Tu- ba mi- rum|spar- gens so-|num, per se-|pul- chra re- gi-|o- num, co-|
 F4 G4 _B8 | A4 G8 F4 | E8 ^F8 || d8 c4 B4- | B4 c4 c4 A4 | d8 e4 c4- | c4 d4 e6 B2 | c4 A4 B8 | %118
w: * get om-|nes an- te|thro- num.|Li- ber scrip-|* tus pro- fe-|re- tur in|_ quo to- tum|con- ti- ne-|
 B4 e8 d4 | c8 B4 e4- | e4 c4 d4 B4 | ^c4 A4 A8 | A16 || A4 c4 d4 e4 | c4 d4 G8 | G4 c8 B4 | %126
w: tur, un- de|mun- dus un-|* de mun *|iu- di- ce-|tur.|Quid sum mi- ser|tunc dic- tu-|rus? Quem pa-|
 d8 d8 | c6 c2 B8 | A8 e8- | e4 c4 B8 | A4 F6 EF G4- | G4 F4 E8 | ^F16 || d8 c8- | c8 A6 B2 | c16 | %136
w: tro- num|ro- ga- tu-|rus, cum|_ vix iu-|stus sit _ _ _|_ se- cu-|rus?|O- ro|_ sup- *||
 A8 z4 A4 | _B4 A8 G4 | A8 z4 A4- | A4 d4 B8 | A4 A8 c4 | B8 c8 | d12 d4 | B8 c8 | z4 A6 B2 c4 | %145
w: plex et|ac- cli- *|nis cor|_ con- tri-|tum qua- si|ci- nis,|ge- re|cu- ram|me- * *|
 A8 A8 | A16 || d8 c4 A4- | A4 !courtesy!^G4 A4 F4- | F4 E4 D8 | E4 A8 A4 | A6 G2 A2 B2 c4- | %152
w: i fi-|nis.|Iu- di- can-|* * dus ho-|* mo re|* Hu- ic|er- * * * *|
 c4 B4 d4 c4 | A16 | A16 | A16 || d12 d4 | G6 A2 _B8- | B4 A4 G6 G2 | A4 c4 A4 d4 | B4 c8 B4 | %161
w: * go par- ce,|De-|us:||Pi- e|Ie- * *|* su Do- mi-|ne, do- na e-|is re- qui-|
 c8 A2 G2 F2 G2 | A4 _B2 c2 d2 c2 B2 A2 | G8 ^F8 |][K:F] z16 | z16 | z16 | z16 | z16 | z16 | z16 | %171
w: em. A- * * *||* men.||||||||
 z16 | z16 | z16 | z16 | z16 | z16 | z16 | z16 | z16 | z16 || A16 | A12 B4 | c8 c8 | c4 c4 B4 A4- | %185
w: ||||||||||Tu|sus- ci-|pe pro|a- ni- ma- bus|
 A4 G2 F2 G8 | A8 A8 | c8 c8- | c4 c4 c4 c4 | A4 F4 G4 B4- | B4 A2 G2 A8 | d16 | c8 c8 | %193
w: _ il- * *|lis qua-|rum ho-|* di- e me-|mo- ri- am fa-|* ci- * mus.|Fac|e- as,|
 B4 A2 G2 A4 A4 | B4 B4 c8 | F4 B4 B6 c2 | d12 c4 | B8 F6 G2 | A16 | A16 || B8 c4 B4- | %201
w: Do- * * * mi-|ne, de mor-|te trans- i- *|* re|ad vi- *||tam.|quam o- lim|
 B2 A2 G8 !courtesy!^F4 | G16 | z8 G8 | A8 B4 d4- | d4 c4 d8 | G8 G4 F4 | G8 A6 B2 | c16 | =B16 |] %210
w: _ _ A- bra-|hae|pro-|mi- si- *|* * sti|et se- mi-|ni e- *||ius.|
[K:C] x16 | x16 ||[K:C] z8 A8 | A8 ^G8 | E4 F4 G6 G2 | G4 A4 A4 A4- | A4 ^G4 A8 |] x16 | x16 || %219
w: ||San-|ctus, _|San- ctus, Do- mi-|nus De- us Sa-|* ba- oth.|||
 F8 E4 F4 | G8 G8 | G2 G2 A4 A8 | A4 d4 B4 c4- | c4 B8 A4 | G8 G4 G4 | G4 A8 G4- | G4 F4 E8 | %227
w: coe- li et|ter- ra|glo- ri- a tu-|a. O- san- na|_ in ex-|cel- sis. O-|san- na in|_ ex- cel-|
 E16 |] x16 | x16 | x16 || F8 G8 | G4 G4 A4 A2 A2 | A6 A2 A4 d4 | B4 c8 B4- | B4 A4 G8 | %236
w: sis.||||qui ve-|nit in no- mi- ne|Do- mi- ni. O-|san- na in|_ ex- cel-|
 G4 G4 G4 A4- | A4 G8 F4 | E8 E8 |] %239
w: sis. O- san- na|_ in ex-|cel *|
V:3
 x8 | x8 | x8 | x8 || F8 | G8 | A4 B4 | c8 | c8 | c8- | c4 A4 | d4 B4 | c6 c2 | c8 | z4 c4 | %15
w: ||||ae-||ter- *||nam|do-|* na|e- is,|Do- mi-|ne,|et|
 c4 c4 | c6 =B2 | c8 | z4 B4- | B2 B2 A4 | G8 | A8 |] z8 | z8 | z8 | z8 | z8 | z8 | z8 | z8 | z8 | %31
w: lux per-|pe- tu|a|lu-|* ce- at|e-|is.||||||||||
 z8 | z8 | z8 | z8 | z8 | z8 || A8 | A8 | A4 A4 | A4 c4 | c8 | c8 | c4 c4 | d4 B4 | c8 | F8 | %47
w: ||||||et|ti-|bi red-|de- tur|vo-|tum|in Je-|ru- sa-|lem.|Ex-|
 G4 A4 | B8 | z4 B4 | B4 B4 | d4 d4 | c8 | c4 c4- | c4 B4 | A8 | F4 F4- | F2 G2 A2 B2 | c8- | %59
w: au- *|di|o-|ra- ti-|o- nem|me-|am; ad|_ te|om-|nis ca-|||
 c4 F4 | G4 c4 | c8 |] z8 | z8 | F8 | G4 A4 | F4 B4 | A6 GF | G4 A2 B2 | c4 c4 | c8 || c8 | A4 c4 | %73
w: * ro|ve- ni-|et.|||Ky-|ri- e|e- le-|||* i-|son|Chri-|ste e-|
 B4 A2 G2 | A6 B2 | c4 A4 | G8 | z8 | G8 | E4 G4 | F6 F2 | c4 F4 | G4 G4 | F8 || c8- | c4 F4 | %86
w: le- * *||* i-|son||Chri-|ste e-|le- i-|son e-|le- i-|son.|Ky-|* ri-|
 F8- | F4 f4- | f4 B4 | B8- | B4 G4 | F6 G2 | A8 | G8 | F8 |][K:C][M:4/2] A12 c4 | c8 c4 F4- | %97
w: e|_ Ky-|* ri-|e|_ e-|le- *||i-|son|Di- es|i- rae, di-|
 F4 c4 c8 | c4 c8 d4 | B8 A4 A4- | A4 A4 A4 ^G4 | A4 A8 G4 | F12 c4 | _B4 A4 A8 | A16 || %105
w: * es il-|la sol- vet|saec- lum in|_ fa- vil- *|la, te- ste|Da- vid|cum Si- byl-|la.|
 F4 A4 G4 A4 | c4 A4 c8 | c4 c8 B4 | A4 B4 A4 A4 | A4 ^G4 A4 A4- | A4 c4 d8 | c8 c4 A4 | A8 A8 || %113
w: Tu- ba mi- rum|spar- gens so-|num, per se-|pul- chra re- gi-|o- * num, co-|* get om-|nes an- te|thro- num.|
"^Tenore primo di M: Michele Cilandri" A8 A4 G4- | G4 E4 A4 c4 | c4 B4 c4 e4- | e4 d4 c4 B4 | %117
w: Li- ber scrip-|* tus pro- fe-|re- * tur in|_ quo to- tum|
 A6 A2 ^G8 | ^G4 c8 B4 | A6 GF E2 F2 G4- | G4 A8 G4- | G4 F4 E8 | ^F16 || d4 c4 B4 c4 | A4 B4 c8 | %125
w: con- ti- ne-|tur, un- de|mun- * * * * *|* dus iu-|* di- ce-|tur.|Quid sum mi- ser|tunc dic- tu-|
 c8 G8 | A8 B4 B4 | G2 E2 A8 ^G4 | A8 z8 | G8 B4 d4- | d4 A8 c4- | c4 A4 A8 | A16 || %133
w: rus? Quem|pa- tro- num|ro- ga- tu- *|rus,|cum vix iu-|* stus sit|_ se- cu-|rus?|
"^Tenore dell' Asola" A16 | G8 F8 | G8 A8 | D8 F8- | F4 E4 D8 | E8 z4 F4- | F4 F4 G8 | %140
w: O-|ro _|sup *|plex et|_ ac- cli-|nis cor|_ con- tri-|
 E4 F6 D2 A4- | A4 !courtesy!^G4 A8- | A4 A8 F4 | G8 E8 | F6 G2 A2 F2 G4- | G4 F4 E8 | D16 || %147
w: tum qua- si ci-|* * nis,|_ ge- re|cu- ram|me- * * * *|* i fi-|nis.|
 A8 c8 | B8 A8 | A6 G2 F4 G4 | A8 D8 | F12 E4 | G8 A8 | D8 F8 | E16 | D16 || %156
w: Iu- di-|can- dus|ho- * * mo-|re- us.|Hu- ic|er- go|par- ce,|De-|us:|
"^Tenore del Cilandri" A12 B4 | c8 F4 G4- | G4 A2 !courtesy!_B2 c6 c2 | c4 A8 A4 | G4 G4 G6 G2 | %161
w: Pi- e|Ie- su Do-|* * * * mi-|ne, do- na|e- is re- *|
 G4 c6 B2 A2 G2 | F8 G6 A2 | _B8 A8 |][K:F] F8 G8 | B8 B8 | A8 F8 | G8 B8 | B8 A8 | F8 G8 | B8 B8 | %171
w: em. A- * * *||* men.|Ho- sti-|* as|_ et|pre- *|ces _|ti- bi,|_ Do-|
 G8 A8 | G8 F8 | G8 G8 | F8 A8 | G8 A8 | B8 A8 | G8 G8 | A8 G8 | F8 G8 | G8 G8 || %181
w: mi- *||* ne,|_ lau-||* dis|_ of-||fe- *|ri- mus.|
"^Tenore dell'Asola" F8 E8 | F12 F4 | G8 A8 | A4 G4 F4 E4 | D16 | E8 F8 | G8 A8- | A4 A4 G4 c4 | %189
w: Tu _|sus- ci-|pe pro|a- ni- ma- bus|il-|lis qua-|rum ho-|* di- e me-|
 c4 B4 c4 F4 | G6 G2 A8 | B16 | A8 G4 G4- | G4 F2 E2 F4 F4 | G4 G4 G8 | B8 F4 G4 | A12 A4 | D16 | %198
w: mo- ri- am fa-|* ci- mus.|Fac|e- as, Do-|* * * * mi-|ne, de mor-|te trans- *|i- re|ad|
 F8 E8 | D16 || G8 G4 F4 | G8 A8 | G8 z4 B4- | B4 A6 G2 G4- | G4 !courtesy!^F4 G4 =F4 | G8 A6 B2 | %206
w: vi- *|tam.|Quam- o- lim|A- bra-|hae pro-|* mi- * si-|* * sti et|se- * *|
 c8 B4 A4- | A2 G2 G8 F4 | G16 | G16 |][K:C] A8 G8 | G8 A8 ||[K:C] c12 d4- | d4 A4 B8 | %214
w: * mi- ni|_ _ e- *|||San- *|ctus, _|San- *|* * ctus,|
 A4 A4 c6 c2 | c8 c4 d4 | B6 B2 ^c8 |] x16 | x16 || A8 A4 A4 | c8 B4 B4- | B2 c2 d4 d4 ^c4 | %222
w: San- ctus, Do- mi-|nus De- us|Sa- ba- oth.|||coe- li et|ter- ra glo-|* ri- a tu- *|
 d4 A4 d4 e4 | d8 c4 c4- | c4 B4 c4 c4 | B4 c4 B8 | A4 A8 ^G4 | A16 |] x16 | x16 | x16 || A8 c8 | %232
w: a, O- san- na|in ec- cel-|* sis. O- san-|na in ex-|* cel- *|sis.||||Qui ve-|
 _B4 B4 d4 d2 d2 | d4 ^c4 d4 A4 | d4 e4 d8 | c4 c8 B4 | c4 c4 B4 c4 | B8 A4 A4- | A4 ^G4 A8 |] %239
w: nit in no- mi- ne|Do- mi- ni. O-|san- na in-|* cel- *|sis. O- san- na|in ex- cel-|* * sis.|
V:4
 F,8 | G,8 | F,8 | F,8 || z4 F,4- | F,4 E,4 | D,8 | C,8 | F,,4 F,4- | F,4 E,4 | F,4 F,4 | %11
w: Re-||qui-|em|E-|||ter-|nam do-|* na|e- is,|
 B,,6 B,,2 | F,,8 | z4 C,4 | F,8 | E,8 | G,6 G,2 | C,4 F,4- | F,2 F,2 B,,4 | C,8- | C,8 | F,,8 |] %22
w: Do- mi-|ne,|et|lux|per-|pe- tu-|a lu-|* ce- at|e-||is.|
 F,8 | G,8 | G,8 | F,8 | G,8 | A,8 | A,8 | A,8 | A,8 | A,8 | A,8 | G,8 | A,8 | A,8 | x8 || F,8 | %38
w: Te|_|de-||cet|_|hym-|nus,|De-|us,|in|Si-||on||et|
 D,8 | A,,4 A,,4 | D,4 C,4 | F,8 | C,4 F,4- | F,4 A,4 | G,4 G,4 | F,8 | D,8 | C,8 | B,,4 B,,4 | %49
w: ti-|bi red-|de- tur|vo-|tum in|_ Je-|ru- sa-|lem.|Ex-|au-|di o-|
 B,,4 B,,4 | _E,4 E,4 | B,,8 | F,4 F,4- | F,4 E,4 | D,8 | A,,8 | B,,6 C,2 | D,2 E,2 F,4- | %58
w: ra- ti-|o- nem|me-|am; ad|_ te|om-|nis|ca- *||
 F,4 F,,4 | C,8- | C,4 C,4 | F,,8 |] F,8 | E,4 F,4 | B,,4 D,4 | C,4 A,,4 | B,,2 C,2 D,2 E,2 | %67
w: * ro|ve-|* ni-|et.|Ky-|ri- e|e- *||le- * * *|
 F,6 E,D, | C,8- | C,4 C,4 | F,,8 || z8 | F,8 | D,4 E,4 | F,8- | F,8 | G,8 | F,8 | z8 | C,8 | %80
w: ||* i-|son||Chri-|ste e-|le-||i-|son||Chri-|
 A,,4 B,,4 | C,8- | C,4 C,4 | F,,8 || z8 | F,8- | F,4 B,,4 | B,,8 | B,8- | B,4 _E,4 | _E,8 | B,,8 | %92
w: ste e-|le-|* i-|son||Ky-|* ri-|e|Ky-|* ri-|e|e-|
 A,,6 B,,2 | C,4 C,4 | F,,8 |][K:C][M:4/2] D,12 C,4 | F,8 C,4 _B,,4- | B,,4 F,,4 C,8 | %98
w: le- *|* i-|son|Di- es|i- rae, di-|* es il-|
 F,,4 F,8 D,4 | E,8 ^C,4 D,4- | D,4 A,,4 E,8 | A,,8 D,8- | D,4 C,4 _B,,4 C,4 | G,,4 D,4 A,,8 | %104
w: la sol- vet|saec- lum in|_ fa- vil-|la, te-|* ste Da- vid|cum Si- byl-|
 D,16 || D,4 A,,4 E,4 F,4 | C,4 D,4 C,8 | F,,4 F,8 G,4 | A,4 E,4 F,4 D,4 | E,8 A,,4 D,4- | %110
w: la.|Tu- ba mi- rum|spar- gens so-|num, per se-|pul- chra re- gi-|o- num, co-|
 D,4 C,4 _B,,8 | F,,4 C,8 D,4 | A,,8 D,8 || D,8 A,,4 E,4- | E,4 C,4 F,4 A,4 | G,8 C,4 C4- | %116
w: * get om-|nes an- te|thro- num.|Li- ber scrip-|* tus pro- fe-|re- tur in|
 C4 B,4 A,4 ^G,4 | A,4 F,4 E,8 | E,4 C,8 G,,4 | A,,2 B,,2 C,2 D,2 E,8 | C,4 F,,8 G,,4 | A,,16 | %122
w: _ quo to- tum|con- ti- ne-|tur, un- de|mun- * * * *|dus iu- di-|ce-|
 D,16 || D,4 A,4 G,4 E,4 | F,4 D,4 C,8 | C,8 z4 G,4- | G,4 ^F,4 G,4 B,,4 | C,4 A,,4 E,8 | %128
w: tur.|Quid sum mi- ser|tunc dic- tu-|rus? Quem|_ pa- tro- num|ro- ga- tu-|
 A,,8 C,8 | E,8 G,8 | D,8 F,4 E,2 D,2 | C,4 D,4 A,,8 | D,16 || D,8 A,,8 | C,8 D,8 | C,8 z4 F,4- | %136
w: rus, cum|vix iu-|stus sit _ _|_ se- cu-|rus?|O- ro|sup- *|plex et|
 F,2 E,2 D,2 C,2 D,8- | D,4 C,4 !courtesy!_B,,8 | A,,8 z4 D,4- | D,4 D,4 E,8 | A,,4 D,8 A,,4 | %141
w: _ _ _ _ _|* ac- cli-|nis cor|_ con- tri-|tum qua- si|
 E,8 A,,8 | D,12 D,4 | G,,8 C,8 | A,,4 D,8 C,4 | D,8 A,,8 | D,16 || D,8 A,,8 | E,8 A,,4 D,4- | %149
w: ci- nis,|ge- re|cu- ram|me- * i|fi- *|nis.|Iu- di-|can- dus ho-|
 D,2 C,2 A,,4 _B,,8 | A,,8 z8 | D,12 A,,4 | E,8 D,4 F,4- | F,2 E,2 D,2 C,2 D,4 D,4 | A,,16 | %155
w: * * mo re-|us.|Hu- ic|er- go par-|* * * * * ce,|De-|
 D,16 || D,12 D,4 | C,8 _B,,8 | C,12 C,4 | F,,4 F,8 D,4 | G,4 C,4 G,,6 G,,2 | C,8 F,6 E,2 | %162
w: us:|Pi- e|Ie- su|Do- mi-|ne, do- na|e- is re- qui-|em. A- *|
 D,2 C,2 _B,,2 A,,2 G,,8- | G,,8 D,8 |][K:F] z16 | z16 | z16 | z16 | z16 | z16 | z16 | z16 | z16 | %173
w: |* men.||||||||||
 z16 | z16 | z16 | z16 | z16 | z16 | z16 | z16 || D,8 A,,8 | D,12 D,4 | C,8 F,8 | F,4 E,4 D,4 C,4 | %185
w: ||||||||Tu _|sus- ci-|pe pro|a- ni- ma- bus|
 B,,16 | A,,8 D,8 | C,8 F,8- | F,4 F,4 C,4 C,4 | D,8 C,4 B,,4 | E,6 E,2 D,8 | B,,16 | F,8 C,8 | %193
w: il-|lis qua-|rum ho-|* di- e me-|mo- ri- am|fa- ci- mus.|Fac|e- as,|
 D,12 D,4 | G,,4 G,,4 C,8 | B,,12 G,,4 | D,8 A,,8 | B,,6 C,2 D,8 | A,,16 | D,16 || G,,8 C,4 B,,4 | %201
w: Do- mi-|ne, de mor-|te trans-|i- re|ad _ _|vi-|tam.|quam o- lim|
 !courtesy!_E,8 D,8 | G,,8 z4 G,4- | G,4 F,4 !courtesy!_E,8 | D,8 z4 D,4 | !courtesy!_E,4 E,4 D,8 | %206
w: A- bra-|hae pro-|* mi- si-|sti et|se- mi- ni|
 C,8 G,,4 D,4 | !courtesy!_E,4 E,4 D,8 | C,16 | G,,16 |][K:C] x16 | x16 || %212
w: e- ius,. et|se- mi- ni|e-|ius.|||
[K:C] A,6 G,2 F,2 E,2 D,4- | D,4 ^C,4 E,8 | A,,4 D,2 D,2 C,6 C,2 | C,4 F,8 D,4 | E,6 E,2 A,,8 |] %217
w: San- * * * *|* ctus, San-|ctus Sanc- tus Do- mi-|nus De- us|Sa- ba- oth.|
 F,8 G,8 | A,8 A,8 || D,8 A,,4 D,4 | C,8 G,,4 G,4- | G,2 E,2 D,4 A,8 | D,8 z4 A,4 | %223
w: Ple- ni|_ sunt|coe- li et|ter- ra glo-|* ri- a tu-|a. O-|
 ^F,4 G,4 E,4 =F,4 | G,8 C,8 | z4 F,4 D,4 E,4 | ^C,4 D,4 E,8 | A,,16 |] F,8 G,8 | A,8 A,8 | %230
w: san- na in ex-|cel- sis.|O- san- na|in ex- cel-|sis.|Be- ne-|* dic-|
 A,8 z8 || D,8 C,8 | G,,4 G,4 D,4 D,2 D,2 | A,4 A,,4 D,8 | z4 A,4 ^F,4 G,4 | E,4 F,4 G,8 | %236
w: tus|qui ve-|nit in no- mi- ne|Do- mi- ni.|O- san- na|in ex- cel-|
 C,8 z4 F,4 | D,4 E,4 ^C,4 D,4 | E,8 A,,8 |] %239
w: sis. O-|san- na in ex-|cel- sis.|

